src/assets/icons/nav_setting.svg

<svg width="18" height="18" viewBox="0 0 18 18" fill="none" xmlns="http://www.w3.org/2000/svg">
<path d="M15.6666 11.7583L17.25 10.175C17.9 9.52495 17.9 8.46662 17.25 7.81662L15.6666 6.24162V3.99995C15.6666 3.08328 14.9166 2.33328 14 2.33328H11.7583L10.175 0.749951C9.52495 0.0999512 8.46662 0.0999512 7.81662 0.749951L6.24162 2.33328H3.99995C3.08328 2.33328 2.33328 3.08328 2.33328 3.99995V6.24162L0.749951 7.82495C0.0999512 8.47495 0.0999512 9.53328 0.749951 10.1833L2.33328 11.7666V14C2.33328 14.9166 3.08328 15.6666 3.99995 15.6666H6.24162L7.82495 17.25C8.47495 17.9 9.53328 17.9 10.1833 17.25L11.7666 15.6666H14C14.9166 15.6666 15.6666 14.9166 15.6666 14V11.7583ZM8.99995 14C6.24162 14 3.99995 11.7583 3.99995 8.99995C3.99995 6.24162 6.24162 3.99995 8.99995 3.99995C11.7583 3.99995 14 6.24162 14 8.99995C14 11.7583 11.7583 14 8.99995 14Z" fill="#DADADA"/>
</svg>

<svg width="18" height="18" fill="none" xmlns="http://www.w3.org/2000/svg"><path d="m15.667 11.758 1.583-1.583a1.67 1.67 0 0 0 0-2.358l-1.583-1.575V4c0-.917-.75-1.667-1.667-1.667h-2.242L10.175.75a1.67 1.67 0 0 0-2.358 0L6.242 2.333H4c-.917 0-1.667.75-1.667 1.667v2.242L.75 7.825a1.67 1.67 0 0 0 0 2.358l1.583 1.584V14c0 .917.75 1.667 1.667 1.667h2.242l1.583 1.583c.65.65 1.708.65 2.358 0l1.584-1.583H14c.917 0 1.667-.75 1.667-1.667v-2.242ZM9 14c-2.758 0-5-2.242-5-5s2.242-5 5-5 5 2.242 5 5-2.242 5-5 5Z" fill="#DADADA"/></svg>
